didi.svg

<svg viewBox="0 0 24 24" xmlns="http://www.w3.org/2000/svg"><path d="M12.0686 17.4514C16.1829 17.3143 19.4286 14.0457 19.4743 10L19.4743 6.50286L24 6.50286L24 10.3657C23.9086 16.6514 18.4457 21.5886 12.0686 21.7257L12.0686 21.7257C5.57714 21.68 0.0685713 16.6971-1.77636e-15 10.3657L-1.77636e-15 3.44C-1.77636e-15 2.73143 0.457143 2.27429 1.14286 2.27429L19.4743 2.27429L19.4743 6.50286L5.09714 6.50286C4.73143 6.50286 4.50286 6.73143 4.50286 7.09714L4.50286 9.93143C4.54857 14.0229 7.86286 17.4057 12.0686 17.4514Z" fill="#fc9153"/></svg>

<svg viewBox="0 0 24 24" xmlns="http://www.w3.org/2000/svg"><path d="M12.069 17.451c4.114-.137 7.36-3.405 7.405-7.451V6.503H24v3.863c-.091 6.285-5.554 11.223-11.931 11.36C5.577 21.68.069 16.697 0 10.366V3.44c0-.709.457-1.166 1.143-1.166h18.331v4.229H5.097c-.366 0-.594.228-.594.594v2.834c.046 4.092 3.36 7.475 7.566 7.52Z" fill="#fc9153"/></svg>
